X:161
T:Tadgh's Ailment
B:Terry "Cuz" Teahan "Sliabh Luachra on Parade" 1980
Z:Patrick Cavanagh
M:4/4
L:1/8
R:Hornpipe
K:D
A/B/c | ddcA BFAF | DFAF G/B/G F/A/F | Eeee eABc | ddcB A2Bc | 
ddcA BFAF | DFAF G/B/G F/A/F | Eeed cABc | d2dc d2 :| 
d2 | Acec Acec | Adfd Adfd | eeee eABc | ddcB A2Bc | 
ddcA BFAF | DFAF G/B/G F/A/F | Eeed cABc | d2dc d2 :| 

